!!!SOCIAL_FUNCTION:	dream songs
!!!PDT:	1913
!!!OTL: No_95_Song_of_the_Deer_(a).krn
!!!REG: Great_Lakes
!!!LANG: Non-Tone
!!!LING_GROUP: Algonquin
**kern	**kern
*staff2	*staff1
=1-	=1-
*clefF4	*clefF4
*k[f#c#g#d#a#]	*k[f#c#g#d#a#]
*M2/4	*M2/4
8GG#/L	8d#\L
8GG#/J	8d#\J
8GG#/L	8B\L
8GG#/J	8B\J
=2	=2
8GG#/L	8d#\L
8GG#/J	8d#\J
8GG#/L	4c#\
8GG#/J	.
=3||	=3||
*M3/4	*M3/4
2.r	16.G#\LL
.	32G#\JK
.	8G#\J
.	4G#\
.	4G#\
=4||	=4||
*M2/4	*M2/4
2r	8c#\L
.	8c#\J
.	8c#\L
.	8B\J
=5	=5
2r	8c#\L
.	8B\J
.	4G#\
=6||	=6||
*M3/4	*M3/4
2.r	16.D#\LL
.	32D#\JK
.	8D#\J
.	4D#\
.	4D#\
=7||	=7||
*M2/4	*M2/4
2r	8G#\L
.	8G#\J
.	8G#\L
.	8F#\J
=8	=8
2r	8G#\L
.	8G#\J
.	4G#\
=9	=9
2r	16.D#\LL
.	32D#\JK
.	8D#\J
.	4D#\
=10	=10
2r	4D#\
.	8D#\L
.	8D#\J
=11||	=11||
*M3/4	*M3/4
2.r	[2D#\
.	8.D#\L]
.	16D#\Jk
=12||	=12||
*M2/4	*M2/4
2r	4D#\
.	8D#\L
.	8D#\J
=13||	=13||
*M3/4	*M3/4
2.r	[2D#\
.	8.D#\L]
.	16D#\Jk
=14	=14
2.r	2.D#\
==	==
*-	*-
